app/images/src/icons/headphone.svg

<svg width="50" height="50" viewBox="0 0 50 50" fill="none" xmlns="http://www.w3.org/2000/svg">
<g clip-path="url(#clip0_235_46623)">
<rect width="50" height="50" fill="#FBE0E0"/>
<path d="M24.1522 14.3874C20.2522 14.7811 17.1209 17.7577 16.535 21.6295C16.4975 21.8827 16.4646 22.117 16.4646 22.1452C16.4646 22.178 16.3053 22.2061 16.0287 22.2202C14.7396 22.2905 13.61 23.153 13.1459 24.4233L13.0193 24.7655L13.0053 26.3686C12.9865 28.2014 13.0006 28.2811 13.3428 28.9842C13.7928 29.8983 14.6271 30.5264 15.6443 30.7186C16.474 30.8733 17.3412 30.8452 17.66 30.6483C17.9787 30.4514 17.9646 30.6295 17.9646 26.5608C17.9646 22.2155 17.9928 21.8077 18.3209 20.7811C19.0662 18.4608 20.9928 16.6702 23.3506 16.0983C26.224 15.3999 29.1725 16.567 30.8506 19.0655C31.1084 19.4452 31.5162 20.2983 31.6709 20.7811C31.999 21.8077 32.0272 22.2155 32.0272 26.5702C32.0272 30.742 32.0037 30.4702 32.4068 30.6858C32.6084 30.7936 32.6365 30.7983 33.4803 30.7749C34.2537 30.7561 34.385 30.742 34.7225 30.6342C35.2475 30.4608 35.6506 30.2124 36.0631 29.8045C36.349 29.5186 36.4615 29.3639 36.6397 29.0077C36.9959 28.2811 37.0053 28.2061 36.9865 26.3686L36.9725 24.7655L36.8459 24.4233C36.3865 23.1577 35.2475 22.2905 33.9631 22.2202C33.6865 22.2061 33.5272 22.178 33.5272 22.1452C33.5272 21.9624 33.3678 21.0858 33.26 20.692C32.2006 16.6608 28.31 13.9702 24.1522 14.3874Z" fill="url(#paint0_linear_235_46623)"/>
<path d="M16.1553 31.7734C16.2631 32.4437 16.7131 33.4187 17.2006 34.0234C18.2038 35.2703 19.6803 35.9453 21.41 35.9453H21.785V35.5047V35.0687L21.1756 35.0406C20.2334 34.9937 19.5913 34.7969 18.8788 34.3281C17.9881 33.7469 17.3694 32.8703 17.0788 31.7969L17.0319 31.6094L16.5772 31.6L16.1272 31.5953L16.1553 31.7734Z" fill="url(#paint1_linear_235_46623)"/>
<path d="M23.585 34.0422C23.1443 34.2016 22.8115 34.5297 22.6475 34.9562C22.5678 35.1625 22.5537 35.2891 22.5678 35.5703C22.6053 36.1656 22.9147 36.625 23.449 36.8781L23.7068 37H24.9959H26.285L26.5428 36.8781C27.0772 36.625 27.3865 36.1656 27.424 35.5703C27.4568 34.9562 27.1709 34.4406 26.6318 34.1406L26.3787 34L25.0662 33.9906C24.0725 33.9812 23.7115 33.9906 23.585 34.0422Z" fill="url(#paint2_linear_235_46623)"/>
</g>
<defs>
<linearGradient id="paint0_linear_235_46623" x1="13" y1="22.5813" x2="36.9921" y2="22.5813" gradientUnits="userSpaceOnUse">
<stop stop-color="#E81212"/>
<stop offset="1" stop-color="#FCCD05"/>
</linearGradient>
<linearGradient id="paint1_linear_235_46623" x1="16.1272" y1="33.7703" x2="21.785" y2="33.7703" gradientUnits="userSpaceOnUse">
<stop stop-color="#E81212"/>
<stop offset="1" stop-color="#FCCD05"/>
</linearGradient>
<linearGradient id="paint2_linear_235_46623" x1="22.563" y1="35.4937" x2="27.4266" y2="35.4937" gradientUnits="userSpaceOnUse">
<stop stop-color="#E81212"/>
<stop offset="1" stop-color="#FCCD05"/>
</linearGradient>
<clipPath id="clip0_235_46623">
<rect width="50" height="50" rx="25" fill="white"/>
</clipPath>
</defs>
</svg>

<svg width="50" height="50" fill="none" xmlns="http://www.w3.org/2000/svg"><g clip-path="url(#a)"><path fill="#FBE0E0" d="M0 0h50v50H0z"/><path d="M24.152 14.387a8.566 8.566 0 0 0-7.617 7.242c-.038.254-.07.488-.07.516 0 .033-.16.061-.436.075-1.29.07-2.419.933-2.883 2.203l-.127.343-.014 1.603c-.019 1.832-.004 1.912.338 2.615a3.188 3.188 0 0 0 2.301 1.735c.83.154 1.697.126 2.016-.07.319-.198.305-.02.305-4.088 0-4.346.028-4.753.356-5.78a7.065 7.065 0 0 1 5.03-4.683c2.873-.698 5.822.469 7.5 2.968.257.38.665 1.232.82 1.715.328 1.027.356 1.434.356 5.79 0 4.171-.023 3.9.38 4.115.201.108.23.112 1.073.089.774-.019.905-.033 1.242-.14a3.252 3.252 0 0 0 1.341-.83 2.55 2.55 0 0 0 .577-.797c.356-.727.365-.802.346-2.64l-.014-1.602-.126-.343c-.46-1.265-1.598-2.132-2.883-2.203-.276-.014-.436-.042-.436-.075 0-.183-.16-1.06-.267-1.453-1.06-4.031-4.95-6.722-9.108-6.305Z" fill="url(#b)"/><path d="M16.155 31.773c.108.67.558 1.646 1.046 2.25 1.003 1.247 2.48 1.922 4.209 1.922h.375v-.876l-.61-.028c-.942-.047-1.584-.244-2.296-.713-.89-.581-1.51-1.458-1.8-2.531l-.047-.188-.455-.009-.45-.005.028.178Z" fill="url(#c)"/><path d="M23.585 34.042c-.44.16-.774.488-.938.914-.08.206-.093.333-.08.614.038.596.348 1.055.882 1.308l.258.122h2.578l.258-.122c.534-.253.844-.712.881-1.308a1.487 1.487 0 0 0-.792-1.43l-.253-.14-1.313-.01c-.993-.009-1.354 0-1.481.052Z" fill="url(#d)"/></g><defs><linearGradient id="b" x1="13" y1="22.581" x2="36.992" y2="22.581" gradientUnits="userSpaceOnUse"><stop stop-color="#E81212"/><stop offset="1" stop-color="#FCCD05"/></linearGradient><linearGradient id="c" x1="16.127" y1="33.77" x2="21.785" y2="33.77" gradientUnits="userSpaceOnUse"><stop stop-color="#E81212"/><stop offset="1" stop-color="#FCCD05"/></linearGradient><linearGradient id="d" x1="22.563" y1="35.494" x2="27.427" y2="35.494" gradientUnits="userSpaceOnUse"><stop stop-color="#E81212"/><stop offset="1" stop-color="#FCCD05"/></linearGradient><clipPath id="a"><rect width="50" height="50" rx="25" fill="#fff"/></clipPath></defs></svg>
